icons/hono-dark.svg

<svg width="256" height="256" viewBox="0 0 256 256" fill="none" xmlns="http://www.w3.org/2000/svg">
<rect width="256" height="256" rx="60" fill="#282828" />
<path opacity="0.993" d="M131.067 38.0155C131.577 37.9544 132.027 38.0742 132.417 38.3749C146.761 54.6899 160.259 71.5823 172.911 89.052C182.278 102.195 190.248 116.092 196.822 130.744C207.32 156.839 201.856 179.542 180.431 198.852C161.685 213.618 140.088 219.368 115.641 216.104C86.4187 210.552 66.5572 194.798 56.0571 168.842C53.3221 160.391 52.4222 151.766 53.3575 142.964C54.9149 127.814 58.7715 113.197 64.9272 99.1156C67.4922 93.37 70.8347 88.0989 74.9543 83.3014C78.3152 87.0321 81.5289 90.866 84.5957 94.8026C86.0156 96.186 87.4939 97.504 89.0307 98.7562C100.761 77.0606 114.774 56.8137 131.067 38.0155Z" fill="#FF5B11" />
<path d="M128.368 67.1279C142.519 82.4245 155.31 98.7178 166.741 116.008C170.325 121.729 173.281 127.719 175.611 133.979C180.464 151.772 175.257 166.449 159.992 178.007C145.227 187.689 129.03 190.564 111.399 186.633C92.3865 181.134 81.3953 169.214 78.4254 150.871C77.7046 145.088 78.3475 139.457 80.3537 133.979C83.2145 127.208 86.6854 120.739 90.7664 114.57C94.6229 109.299 98.4795 104.028 102.336 98.7562C111.097 88.2578 119.774 77.7151 128.368 67.1279Z" fill="#FF9758" />
</svg>

<svg xmlns="http://www.w3.org/2000/svg" width="256" height="256" fill="none"><rect width="256" height="256" fill="#282828" rx="60"/><path fill="#FF5B11" d="M131.067 38.016q.765-.093 1.35.359a687 687 0 0 1 40.494 50.677 243 243 0 0 1 23.911 41.692q15.747 39.143-16.391 68.108-28.12 22.149-64.79 17.252-43.833-8.328-59.584-47.262-4.102-12.676-2.7-25.878 2.337-22.726 11.57-43.848A64.5 64.5 0 0 1 74.954 83.3q5.041 5.596 9.642 11.502a67 67 0 0 0 4.435 3.953q17.596-32.543 42.036-60.74" opacity=".993"/><path fill="#FF9758" d="M128.368 67.128a382.6 382.6 0 0 1 38.373 48.88 98.5 98.5 0 0 1 8.87 17.971q7.279 26.69-15.619 44.028-22.147 14.523-48.593 8.626-28.52-8.248-32.974-35.762-1.08-8.675 1.929-16.892a119 119 0 0 1 10.412-19.409l11.57-15.814a3017 3017 0 0 0 26.032-31.628"/></svg>
